P3
# Small, source-controlled tile used by the homework demo.
8 8
255
205 194 170  205 194 170  105 92 72    105 92 72    205 194 170  205 194 170  105 92 72    105 92 72
205 194 170  230 219 193  105 92 72    126 109 84   205 194 170  230 219 193  105 92 72    126 109 84
92 78 60      92 78 60      181 166 139  181 166 139  92 78 60      92 78 60      181 166 139  181 166 139
92 78 60      111 94 70     181 166 139  215 201 173  92 78 60      111 94 70     181 166 139  215 201 173
205 194 170  205 194 170  105 92 72    105 92 72    205 194 170  205 194 170  105 92 72    105 92 72
205 194 170  230 219 193  105 92 72    126 109 84   205 194 170  230 219 193  105 92 72    126 109 84
92 78 60      92 78 60      181 166 139  181 166 139  92 78 60      92 78 60      181 166 139  181 166 139
92 78 60      111 94 70     181 166 139  215 201 173  92 78 60      111 94 70     181 166 139  215 201 173
